X:275
T:Little Sadie
C:Traditional
N:Arr. Mike Stangeland
R:bluegrass
L:1/8
Q:1/4=180
M:4/4
K:F
z6 G_A | "Dm"AG A2 c2 dc | AG F2 D2 ED | "C"CD EF G2 AG | ED C=B, "Am"A,4 | A,C DC DE GD | 
ED C=B, A,2 G_A | AG AB AG FE | DF E2 "Dm"D4 | "Dm"[a4c4D4] [c'4c4D4] | ag f2 d2 d2 | 
"C"cA Ge dc ag | ed cG "Am"A4 | Ac dc de g2 | ed cG [A2A2] Ac | cd d_A dF Dc | 
AG FC "Dm"D4 | z8 | 


